X:13014
T:Pericote (CT 086)
R:Danza
C:Tradicional
S:Música Tradicional Asturiana, (C) Tello & Tito. Asturies, 2001.
S:http://pagina.de/MusTradAst <telloytito@asturies.org>
N:Canción de baile, transcrita en Llanes.
N:Se conoce este baile con el nombre de "El Pericote", e intervienen en él personas de ambos sexos, distribuídas en grupos de a tres, formando cada grupo un hombre y dos mujeres.
N:Al bailador se le llama "Perico".
N:Abunda este baile en figuras, en las cuales el hombre galantea a las mujeres.
N:Según testimonio de varias personas, en algunos pueblos del concejo de Llanes sustituía al hombre una mujer, cubriendo su cabeza con un gran sombrero de copa adornado con cintas de diversos colores.
N:Era debido esto, según nos aseguraban, a la falta de hombres jóvenes, pues la emigración a México llegó a ser muy general en la comarca.
N:Por creerlo de algún interés, señalaremos, sin hacer, no obstante, deducción alguna, que antiguamente se usó en España una especie de tocado hecho con pelo postizo y que adornaba la parte delantera de la cabeza, el cual se llamaba Perico.
N:Se designa también en el castellano corriente con el nombre de "Pericón" a aquella persona que suple por todos, haciendo ella sola el oficio de varias.
N:Los gauchos argentinos poseen un baile que denominan Pericón, "especie de gran contradanza campesina, tan abundante en figuras como pobre en música"
N:(L. Lugones: "La musique populaire en Argentina. Revue Sudamericaine", núm. 5; mai 1914. París).
O:Llanes
A:Asturies
Z:Cancioneru de Torner 086
M:2/4
L:1/8
Q:1/4=132
W:¡Válgame, válgame!
W:Mi tíu coxu rompió un pie
W:y después que lu rompió
W:lu llevó a Santu Medé.
K:C
BB|d2 cc|d2 ed|Ac BA|
G2 dB|Ac BA|c2 dB|Ac BA|G2||


